website/assets/stackoverflow.svg

<svg xmlns="http://www.w3.org/2000/svg" width="20" height="20" viewBox="0 0 24 24"><path d="M17.36 20.2v-5.38h1.79V22H3v-7.18h1.8v5.38h12.56zM6.77 14.32l.37-1.76 8.79 1.85-.37 1.76-8.79-1.85zm1.16-4.21l.76-1.61 8.14 3.78-.76 1.62-8.14-3.79zm2.26-4l1.15-1.38 6.9 5.76-1.15 1.37-6.9-5.75zm4.45-4.25L20 9.08l-1.44 1.07-5.36-7.21 1.44-1.07zM6.59 18.72v-1.8h9v1.8z" fill="#fff"/></svg>

<svg width="20" height="20" viewBox="0 0 24 24" xmlns="http://www.w3.org/2000/svg"><rect width="24" height="24" fill="none"/><path d="M17.36 20.2V14.82h1.79V22H3v-7.18H4.8V20.2H17.36zM6.77 14.32l.37-1.76 8.79 1.85-.37 1.76L6.77 14.32zm1.16-4.21L8.69 8.5l8.14 3.78-.76 1.62L7.93 10.11zm2.26-4 1.15-1.38 6.9 5.76-1.15 1.37-6.9-5.75zm4.45-4.25L20 9.08l-1.44 1.07L13.2 2.94l1.44-1.07zM6.59 18.72v-1.8h9v1.8z" fill="#fff"/></svg>
